X:1
T:Dance of the Reed Flutes
C:Pyotr Ilyich Tchaikovsky
M:4/4
L:1/8
Q:1/4=116
K:D
|F2 | A2A2 G2F2 | E4 D4 | .F2.F2 .E2.D2 | c4 B4 | A2A2 G2F2 | E4 D4 | A2B2 c2B2 | A8 | A2A2 B2c2 | d4 c4 | B2A2 G2F2 | E4 D4 | .F2.F2 .E2.D2 | c4 B4 | A2B2 c2d2 | A8 |]
